X:45
T:Nobel Franz Harmony
M:4/4
K:Em
B,2 EG B,2 EG | A2 GF E2 z2 | ABcB A2 E2 | E2 E2 ^D2 z2 |
B,2 EG B,2 EG | A2 GF E2 z2 | ABcB A2 E2 | B,2 B,2 E2 z2 :|
|: G2 (3GAB A2 G2 | F2 F2 G2 z2 | ABcB A2 E2 | E2 E2 ^D4 |
G2 (3GAB A2 G2 | F2 F2 G2 z2 | ABcB A2 E2 | B,2 B,2 E2 z2 :|
